X:2412
L:1/16
Q:1/4=100
M:2/4
K:A
 cde2 e4 | cde2 e2a2 | e2cd edcB | cBAG A2E2 | cde2 e4 | cde2 e2a2 | e2(cd) edcB | A4 A,4 :: 
 edcB cBAG | A2E2A2c2 | B2E2B2d2 | cBAG A2E2 | edcB cBAG | A2E2A2B2 | c2(Bc) dcBc | A4 A,4 :|

